pro/src/icons/full-clear.svg

<svg width="48" height="48" viewBox="0 0 48 48" fill="none" xmlns="http://www.w3.org/2000/svg">
<path id="icon" fill-rule="evenodd" clip-rule="evenodd" d="M24 44C35.0457 44 44 35.0457 44 24C44 12.9543 35.0457 4 24 4C12.9543 4 4 12.9543 4 24C4 35.0457 12.9543 44 24 44ZM15.5872 15.5844C16.369 14.8041 17.6353 14.8054 18.4156 15.5872L23.9882 21.1706L29.5524 15.6192C30.3343 14.839 31.6007 14.8405 32.3808 15.6224C33.161 16.4044 33.1595 17.6707 32.3776 18.4509L26.8214 23.9943L32.4095 29.5462C33.1931 30.3247 33.1972 31.5911 32.4187 32.3746C31.6402 33.1582 30.3739 33.1623 29.5903 32.3838L23.9999 26.8296L18.4578 32.4094C17.6794 33.1931 16.4131 33.1974 15.6294 32.419C14.8457 31.6406 14.8414 30.3743 15.6198 29.5906L21.1667 24.006L15.5844 18.4128C14.8041 17.631 14.8054 16.3647 15.5872 15.5844Z" fill="currentColor"/>
</svg>

<svg xmlns="http://www.w3.org/2000/svg" width="48" height="48" fill="none"><path id="icon" fill="currentColor" fill-rule="evenodd" d="M24 44c11.046 0 20-8.954 20-20S35.046 4 24 4 4 12.954 4 24s8.954 20 20 20m-8.413-28.416a2 2 0 0 1 2.829.003l5.572 5.584 5.564-5.552a2 2 0 1 1 2.826 2.832l-5.557 5.543 5.589 5.552a2 2 0 1 1-2.82 2.838L24 26.83l-5.542 5.58a2 2 0 1 1-2.838-2.82l5.547-5.584-5.583-5.593a2 2 0 0 1 .003-2.829" clip-rule="evenodd"/></svg>
